X: 96
T: CORN RIGS
%R: reel
B: Jean White "100 Popular Hornpipes, Reels, Jigs and Country Dances", Boston 1880 p.39
F: http://www.loc.gov/resource/sm1880.09124.0#seq-1
Z: 2014 John Chambers <jc:trillian.mit.edu>
M: 2/4
L: 1/16
K: D
% - - - - - - - - - - - - - - - - - - - - - - - - - - - - -
A2 |\
dcde f2ed | cBcd e2A2 | dcde f2ed | e2a2a2 A2 |\
dcde f2ed | cBcd e2A2 | BcdB edcB | A2d2d2 :|
|: A2 |\
d2a2f2a2 | bagf e2A2 | d2a2 f2a2 | d2a2a2 A2 |\
d2a2f2a2 | bagf e2A2 | BcdB edcB | A2d2d2 H:|
% - - - - - - - - - - - - - - - - - - - - - - - - - - - - -

%%sep 1 1 500
%%sep 1 1 500
